X:1
T:BWV 826 Capriccio Strings Arrangement
T:BWV 828 Gigue Strings Arrangement
T:J. S. Bach
C:J. S. Bach
%%score 1 2 3
L:1/8
M:9/16
K:D
V:1 treble nm="Violin"
V:2 alto nm="Viola"
V:3 bass nm="Violoncello"
V:1
 D3/2- D/F/A/ d/A/F/ | D/F/A/ =c3/2 z3/2 | B/A/B/ E3/2- E/F/G/ | A/G/A/ D3/2- D/E/F/ | %4
 G/E/C/ A,/C/E/ G/F/E/ | F/D/E/ F/^G/A/ B/c/d/ | c/B/A/ d/c/B/ c/B/A/ | e3/2- e/c/d/ e/f/g/ | %8
 a3/2- a/B/c/ d/e/f/ | g3/2- g/A/B/ c/d/e/ | f3/2 ^G3/2 b3/2 | b/c/e/ a3/2 ^d3/2 | %12
 e/E/F/ G/A/B/ c/d/e/ | d3/2 =c'3/2 f3/2 | g/G/A/ B/c/d/ e/f/g/ | f/e/d/ a3/2 [eg]3/2- | %16
 [eg]3/2 f3/2 z3/2 | f3/2 g z/ z3/2 | g3/2 f z/ z3/2 | d3/2 c3/2 e3/2- | e3/2 d3/2 ^g3/2 | %21
 a3/2 c3/2 ^d3/2- | d3/2 e3/2 ^a3/2 | b3/2 ^d3/2 ^e3/2 | f3/2 a3/2 a3/2 | a3/2 z3/2 z3/2 | %26
 g/f/e/ g3/2 g3/2 | e/E/F/ G/A/B/ c/d/e/ | f/d/B/- B/^A/B/ c/d/e/ | d/B/G/- G/F/G/ A/B/=c/ | %30
 B/G/e/- e/^d/e/ f/g/a/ | g/e/c/- c/B/c/ d/c/B/ | A/c/e/ g/e/c/ A/E/C/ | A,/D/F/ A/d/f/ d/A/F/ | %34
 D/B,/D/ ^G/B/d/ ^g/b/g/ | a/e/c/ A/E/C/ A,/C/E/ | A/c/e/ g3/2 z3/2 | f/e/f/ B3/2- B/c/d/ | %38
 e/d/e/ A3/2- A/B/c/ | d/B/^G/ E/G/B/ d/c/B/ | c/^G/A/- A3/2 z3/2 | c/^G/A/- A3/2 z3/2 | %42
 =c/^G/A/- A3/2 z3/2 | =c/^G/A/- A3/2 z3/2 | z/ F/^G/ A/B/=c/ c/B/A/ | ^G/A/B/ E/G/B/ e3/2- | %46
 e/d/c/ B/c/A/ E/A/^G/ | A3- A3/2 :: z9/2 | z9/2 | z9/2 | z9/2 | z9/2 | z9/2 | z9/2 | z9/2 | z9/2 | %57
 z9/2 | z9/2 | z9/2 | z9/2 | z9/2 | z9/2 | c/d/e/ F/e/d/ c/d/e/ | ^G/e/d/ c/d/e/ ^A/B/c/ | %65
 d/f/a/ ^g/f/e/ d/c/B/ | c/e/g/ f/e/d/ =c/B/A/ | B/=c/d/ c/B/A/ B/A/G/ | A/B/=c/ B/A/G/ A/G/F/ | %69
 G/b/a/ g/f/e/ d/c/B/ | c/d/e/ d/e/f/ e/f/g/ | f/a/g/ f/e/d/ =c/B/^A/ | B/c/d/ c/d/e/ d/e/f/ | %73
 e3/2 c3/2 g3/2 | f3/2 e3 | f3/2 b3- | b3/2 a3/2 g3/2 | f3- f3/2- | f3/2- f/f/e/ d/c/B/ | %79
 e3- e3/2- | e3/2- e/e/d/ c/B/A/ | d3- d3/2- | d3/2- d/d/c/ B/A/^G/ | c/B/A/ d3 | %84
 e/f/e/ d/B/=c/- c=c'/ | b/a/b/ e3/2- e/f/g/ | a/g/a/ d3/2- d/e/f/ | g/e/c/ A/c/e/ g/f/e/ | %88
 f/c/d/- d3/2 z3/2 | f/c/d/- d3/2 z3/2 | =f/c/d/- d3/2 z3/2 | =f/c/d/- d3/2 z3/2 | z9/2 | %93
 z3 [ce]3/2 | z9/2 | z9/2 :| %96
V:2
 z9/2 | z9/2 | z9/2 | z9/2 | z9/2 | z9/2 | A,3/2- A,/C/E/ A/E/C/ | A,/C/E/ G3/2 z3/2 | %8
 F/E/F/ B,3/2- B,/C/D/ | E/D/E/ A,3/2- A,/B,/C/ | D/B,/^G,/ E,/G,/B,/ D/C/B,/ | %11
 C/A,/B,/ C/^D/E/ F/G/A/ | G3/2 E3/2 ^A,3/2 | B,/C/D/ E/F/G/ A/B/=c/ | B3/2 G3/2 C3/2 | %15
 D3/2 z3/2 c3/2- | c3/2 d/F/G/ A/B/=c/ | d3/2- d/E/F/ G/A/B/ | c3/2- c/D/E/ F/G/A/ | %19
 B3/2 z3/2 c3/2 | A3/2 z3/2 d3/2 | e3/2 E3/2 F3/2 | B3 e3/2 | f3/2 F3/2 ^G3/2 | c3/2 f3/2 f3/2 | %25
 f/F/G/ A/B/c/ ^d/e/f/ | z3/2 e3/2 e3/2 | g3/2 z3/2 z3/2 | z3/2 F3/2 [EA]3/2 | z3/2 D3/2 [=CF]3/2 | %30
 z3/2 [B,E]3/2 [A,^D]3/2 | g3- g3/2- | g/ z z3/2 z3/2 | z9/2 | z9/2 | z9/2 | z9/2 | z9/2 | z9/2 | %39
 z9/2 | c3/2- [Ec]3/2 z3/2 | c3/2- [Ec]3/2 z3/2 | =c3/2- [^Dc]3/2 z3/2 | =c3/2- [Ec]3/2 z3/2 | %44
 z9/2 | z3 [EB]3/2 | z9/2 | A,3- A,3/2 :: z9/2 | z9/2 | z9/2 | z9/2 | z9/2 | z9/2 | %54
 F/G/A/ B,/A/G/ F/G/A/ | =C/A/G/ F/G/A/ D/E/F/ | G/B/d/ c/B/A/ G/F/E/ | F/A/=c/ B/A/G/ F/E/D/ | %58
 E/F/G/ F/E/D/ E/D/C/ | D/A/G/ F/E/D/ =C/B,/A,/ | B,3/2 ^D3/2 A3/2- | A/B/A/ ^G/F/E/ D/C/B,/ | %62
 C3/2 ^E3/2 B3/2- | B3/2 ^A3/2 F3/2 | D3/2 E3/2 C3/2 | B,3/2- B,/C/D/ E/F/^G/ | %66
 A3/2- A/B,/=C/ D/E/F/ | G3/2 G,3- | G,3/2 F,3/2 ^D,3/2 | E,3/2 B,3/2 E3/2 | A,3- A,3/2- | %71
 A,3/2 z3/2 F3/2- | F3/2 E3/2 B3/2- | B3/2 ^A3/2 e3/2 | d3 c3/2 | B3 ^g3/2 | e3/2 z3/2 e3/2- | %77
 e/F/G/ A/B/c/ d/e/f/ | B/c/d/ ^G3- | G/E/F/ ^G/A/B/ c/d/e/ | A/B/c/ F3- | F/D/E/ F/^G/A/ B/c/d/ | %82
 ^G/A/B/ E3- | E3/2 z/ c/B/ A/B/G/- | G3 F z/ | z9/2 | z9/2 | z9/2 | f3/2- [Af]3/2 z3/2 | %89
 f3/2- [Af]3/2 z3/2 | =f3/2- [^Gf]3/2 z3/2 | =f3/2- [Af]3/2 z3/2 | z/ B/c/ d/e/=f/- f/e/d/ | %93
 c/d/e/ A/c/e/ a3/2- | a/g/f/ e/f/d/ A/d/c/ | d/A/F/ D/A,/F,/ D,3/2 :| %96
V:3
 z9/2 | z9/2 | z9/2 | z9/2 | z9/2 | z9/2 | z9/2 | z9/2 | z9/2 | z9/2 | z9/2 | z9/2 | z9/2 | z9/2 | %14
 z9/2 | D,3/2- D,/F,/A,/ D/A,/F,/ | D,/F,/A,/ =C3/2 z3/2 | B,/A,/B,/ E,3/2- E,/F,/G,/ | %18
 A,/G,/A,/ D,3/2- D,/E,/F,/ | G,/E,/C,/ A,,/C,/E,/ G,/F,/E,/ | F,/D,/E,/ F,/G,/A,/ B,/C/D/ | %21
 C/B,/A,/ B,/A,/G,/ A,/G,/F,/ | G,/E,/F,/ G,/A,/B,/ C/D/E/ | D/C/B,/ C/B,/A,/ B,/A,/^G,/ | %24
 A,/^G,/F,/- F,/A,/C/ E/^D/C/ | ^D3/2 z3/2 z3/2 | E,3/2- E,/G,/B,/ D/C/B,/ | C3/2 z3/2 z3/2 | %28
 D,3/2 D3/2 C3/2 | B,,3/2 B,3/2 A,3/2 | G,,3/2 G,3/2 F,3/2 | E,3/2 [EG]3/2 [DF]3/2 | %32
 C3/2 z3/2 z3/2 | A,3/2 z3/2 z3/2 | z/ B, z3/2 z3/2 | z3/2 z3/2 A,3/2 | z3/2 z/ A,,/C,/ E,/A,/C/ | %37
 D,3/2 z/ ^G,,/B,,/ D,/F,/B,/ | C,3/2 z/ F,,/A,,/ C,/E,/A,/ | B,,3/2 z/ E,,/^G,,/ B,,/E,/^G,/ | %40
 A,,3/2- A,,/C,/E,/ A,/E,/C,/ | ^G,,3/2- G,,/C,/E,/ A,/E,/C,/ | F,,3/2- F,,/A,,/B,,/ =C,/B,,/A,,/ | %43
 E,,3/2- E,,/A,,/B,,/ =C,/B,,/A,,/ | ^D,,3/2 ^D,3/2 D,,3/2 | D,,3/2- D,,/E,,/F,,/ ^G,,/A,,/B,,/ | %46
 C,,3/2 D,,3/2 E,,3/2 | A,,/C,/E,/ A,/C/E<A :: C/D/E/ F,/E/D/ C/D/E/ | G,/E/D/ C/D/E/ A,/B,/C/ | %50
 D/F/A/ ^G/F/E/ D/C/B,/ | C/E/G/ F/E/D/ C/B,/A,/ | B,/C/D/ C/B,/A,/ B,/A,/^G,/ | %53
 A,/E/D/ C/B,/A,/ G,/F,/E,/ | D,3/2- D,/F,/A,/ D/A,/F,/ | D,/F,/A,/ =C3/2 z3/2 | %56
 B,/A,/B,/ E,3/2- E,/F,/G,/ | A,/G,/A,/ D,3/2- D,/E,/F,/ | G,/E,/C,/ A,,/C,/E,/ G,/F,/E,/ | %59
 F,3/2 A,3/2 D,3/2 | G,/D/=C/ B,/A,/G,/ F,/E,/^D,/ | E,3/2 B,,3/2 ^G,3/2 | %62
 A,/E/D/ C/B,/A,/ ^G,/F,/^E,/ | F,3/2 z3/2 ^A,3/2 | B,3/2 E,3/2 F,3/2 | B,,3/2 E,3/2 z3/2 | %66
 A,,3/2 D,3/2 z3/2 | B,,3/2 E,3/2 D,3/2 | C,3/2 ^D,3/2 B,,3/2 | E,,3/2 z3/2 G,3/2- | %70
 G,3/2 F,3/2 C,3/2 | D,3/2 A,3/2 D3/2 | G,3 z3/2 | C,/D,/E,/ F,,/E,/D,/ C,/D,/E,/ | %74
 ^G,,/E,/D,/ C,/D,/E,/ ^A,,/B,,/C,/ | D,/F,/A,/ ^G,/F,/E,/ D,/C,/B,,/ | %76
 C,/E,/G,/ F,/E,/D,/ C,/B,,/A,,/ | D,3/2 D3/2 B,3/2 | ^G,/A,/B,/- B,/A,/G,/ F,/E,/D,/ | %79
 C,3/2 C3/2 A,3/2 | F,/^G,/A,/- A,/G,/F,/ E,/D,/C,/ | B,,3/2 B,3/2 ^G,3/2 | %82
 E,/F,/^G,/- G,/F,/E,/ D,/C,/B,,/ | A,,/B,,/C,/ B,,/A,/G,/ F,/G,/A,/ | %84
 C,/A,/G,/ F,/G,/A,/ D,/E,/F,/ | G,/B,/D/ C/B,/A,/ G,/F,/E,/ | F,/A,/=C/ B,/A,/G,/ F,/E,/D,/ | %87
 E,/F,/G,/ F,/E,/D,/ E,/D,/C,/ | D,3/2- D,/F,/A,/ D/A,/F,/ | C,3/2- C,/F,/A,/ D/A,/F,/ | %90
 B,,3/2- B,,/D,/E,/ =F,/E,/D,/ | A,,3/2- A,,/D,/E,/ =F,/E,/D,/ | ^G,,3/2 ^G,3/2 G,,3/2 | %93
 G,,3/2- G,,/A,,/B,,/ C,/D,/E,/ | F,,3/2 G,,3/2 A,,3/2 | D,,3 D,3/2 :| %96

